Papirus/22x22/panel/QMPlay2-panel.svg

<?xml version="1.0" encoding="UTF-8" standalone="no"?>
<svg xmlns:osb="http://www.openswatchbook.org/uri/2009/osb" xmlns:dc="http://purl.org/dc/elements/1.1/" xmlns:cc="http://creativecommons.org/ns#" xmlns:rdf="http://www.w3.org/1999/02/22-rdf-syntax-ns#" xmlns:svg="http://www.w3.org/2000/svg" xmlns="http://www.w3.org/2000/svg" width="22" version="1.1" style="enable-background:new" id="svg7384" height="22">
    <metadata id="metadata90">
        <rdf:RDF>
            <cc:Work rdf:about="">
                <dc:format>
                    image/svg+xml
                </dc:format>
                <dc:type rdf:resource="http://purl.org/dc/dcmitype/StillImage"/>
                <dc:title>
                    Paper Symbolic Icon Theme
                </dc:title>
            </cc:Work>
        </rdf:RDF>
    </metadata>
    <title id="title8473">
        Paper Symbolic Icon Theme
    </title>
    <defs id="defs7386">
        <linearGradient osb:paint="solid" id="linearGradient5606">
            <stop style="stop-color:#000000;stop-opacity:1;" offset="0" id="stop5608"/>
        </linearGradient>
    </defs>
    <g transform="translate(-385.0004,125.00336)" style="display:inline" id="layer12">
        <path id="path4138" transform="translate(385.0004,-125.00336)" d="M 4.8613281 3 A 1.818542 1.6244751 0 0 0 3 4.6230469 L 3 11 L 3 17.376953 A 1.818542 1.6244751 0 0 0 5.7285156 18.783203 L 11.910156 15.59375 L 18.091797 12.40625 A 1.818542 1.6244751 0 0 0 18.091797 9.59375 L 11.910156 6.40625 L 5.7285156 3.2167969 A 1.818542 1.6244751 0 0 0 4.8613281 3 z M 6 6 L 10.5 8.5 L 15 11 L 10.5 13.5 L 6 16 L 6 11 L 6 6 z " style="opacity:1;fill:#ffffff;fill-opacity:1;stroke:none;stroke-width:3;stroke-linecap:round;stroke-linejoin:round;stroke-miterlimit:4;stroke-dasharray:none;stroke-dashoffset:0;stroke-opacity:1"/>
    </g>
</svg>

<?xml version="1.0" encoding="UTF-8" standalone="no"?>
<svg id="svg7384" xmlns:rdf="http://www.w3.org/1999/02/22-rdf-syntax-ns#" style="enable-background:new" xmlns="http://www.w3.org/2000/svg" xmlns:osb="http://www.openswatchbook.org/uri/2009/osb" height="22" width="22" version="1.1" xmlns:cc="http://creativecommons.org/ns#" xmlns:dc="http://purl.org/dc/elements/1.1/">
 <metadata id="metadata90">
  <rdf:RDF>
   <cc:Work rdf:about="">
    <dc:format>image/svg+xml</dc:format>
    <dc:type rdf:resource="http://purl.org/dc/dcmitype/StillImage"/>
   </cc:Work>
  </rdf:RDF>
 </metadata>
 <g id="layer12" transform="translate(-385 125)">
  <path id="path4138" d="m4.8613 3a1.8185 1.6245 0 0 0 -1.8613 1.623v6.377 6.377a1.8185 1.6245 0 0 0 2.7285 1.406l6.1815-3.189 6.182-3.188a1.8185 1.6245 0 0 0 0 -2.8122l-6.182-3.1876-6.1815-3.1894a1.8185 1.6245 0 0 0 -0.8672 -0.2168zm1.1387 3l4.5 2.5 4.5 2.5-4.5 2.5-4.5 2.5v-5-5z" transform="translate(385 -125)" fill="#fff"/>
 </g>
</svg>
